icons/linear-new-communication-connection-wifi-off.svg

<svg xmlns="http://www.w3.org/2000/svg" width="32px" height="32px" viewBox="0 0 32 32" version="1.1">
    <title>linear-new-communication-connection-wifi-off</title>
    <g id="linear-new-communication-connection-wifi-off" stroke-width="1" fill-rule="evenodd">
        <path d="M16,23 C17.1045695,23 18,23.8954305 18,25 C18,26.1045695 17.1045695,27 16,27 C14.8954305,27 14,26.1045695 14,25 C14,23.8954305 14.8954305,23 16,23 Z M27.7071068,3.29289322 C28.0976311,3.68341751 28.0976311,4.31658249 27.7071068,4.70710678 L5.70710678,26.7071068 C5.31658249,27.0976311 4.68341751,27.0976311 4.29289322,26.7071068 C3.90236893,26.3165825 3.90236893,25.6834175 4.29289322,25.2928932 L16.5704665,13.0134832 C13.3121509,12.8593667 10.0029921,14.0264451 7.51471863,16.5147186 C7.12419433,16.9052429 6.49102936,16.9052429 6.10050506,16.5147186 C5.70998077,16.1241943 5.70998077,15.4910294 6.10050506,15.1005051 C9.44221231,11.7587978 14.0529624,10.4595842 18.3814454,11.2028642 L21.6719139,7.91285496 C15.4161789,5.84176927 8.24931228,7.29484359 3.27207794,12.2720779 C2.88155365,12.6626022 2.24838867,12.6626022 1.85786438,12.2720779 C1.46734008,11.8815536 1.46734008,11.2483887 1.85786438,10.8578644 C7.6373829,5.07834585 16.0740806,3.57549271 23.2354963,6.34930495 L26.2928932,3.29289322 C26.6834175,2.90236893 27.3165825,2.90236893 27.7071068,3.29289322 Z M17.9916475,17.2505854 C19.3345602,17.5943701 20.6055987,18.2918902 21.6568542,19.3431458 C22.0473785,19.73367 22.0473785,20.366835 21.6568542,20.7573593 C21.26633,21.1478836 20.633165,21.1478836 20.2426407,20.7573593 C19.1311485,19.6458671 17.6920674,19.0616212 16.2361869,19.0046216 L17.9916475,17.2505854 Z M22.595979,12.6469934 C23.7832476,13.2814983 24.8983253,14.0993355 25.8994949,15.1005051 C26.2900192,15.4910294 26.2900192,16.1241943 25.8994949,16.5147186 C25.5089706,16.9052429 24.8758057,16.9052429 24.4852814,16.5147186 C23.4746267,15.5040639 22.3285491,14.711369 21.1054599,14.1366338 L22.595979,12.6469934 Z M26.9704367,8.27248717 C28.0920315,9.00971667 29.1557803,9.87150907 30.1421356,10.8578644 C30.5326599,11.2483887 30.5326599,11.8815536 30.1421356,12.2720779 C29.7516113,12.6626022 29.1184464,12.6626022 28.7279221,12.2720779 C27.7376732,11.2818291 26.6607514,10.4310783 25.5215761,9.71982554 L26.9704367,8.27248717 Z" id="&#24418;&#29366;" />
    </g>
</svg>

<svg xmlns="http://www.w3.org/2000/svg" viewBox="0 0 32 32"><path fill="currentColor" d="M16 23a2 2 0 1 1 0 4 2 2 0 0 1 0-4M27.707 3.293a1 1 0 0 1 0 1.414l-22 22a1 1 0 1 1-1.414-1.414l12.277-12.28a11.969 11.969 0 0 0-9.055 3.502A1 1 0 0 1 6.1 15.1a13.983 13.983 0 0 1 12.28-3.898l3.29-3.29c-6.255-2.071-13.422-.618-18.399 4.36a1 1 0 0 1-1.414-1.415c5.78-5.78 14.216-7.283 21.377-4.509l3.058-3.056a1 1 0 0 1 1.414 0M17.992 17.25a7.963 7.963 0 0 1 3.665 2.092 1 1 0 1 1-1.414 1.414 5.979 5.979 0 0 0-4.007-1.752zm4.604-4.604a14 14 0 0 1 3.303 2.454 1 1 0 1 1-1.414 1.414 11.978 11.978 0 0 0-3.38-2.378zm4.374-4.375a20.087 20.087 0 0 1 3.172 2.586 1 1 0 1 1-1.414 1.414 18.055 18.055 0 0 0-3.206-2.552z"/></svg>
